images/elements-like-button.svg

<svg width="21" height="19" viewBox="0 0 21 19" fill="none" xmlns="http://www.w3.org/2000/svg">
<path d="M19.1599 9.33822C21.2999 7.19833 21.2999 3.72364 19.1599 1.60492C17.0199 -0.534975 13.5451 -0.534975 11.4051 1.60492L10.3668 2.66428L9.32862 1.62611C7.18862 -0.534975 3.71378 -0.534975 1.59497 1.60492C0.55675 2.64309 0.00585938 4.02026 0.00585938 5.48217C0.00585938 6.94408 0.577938 8.32124 1.59497 9.35941L10.3668 18.1309L19.1599 9.33822ZM1.3619 5.48217C1.3619 4.38044 1.78566 3.36346 2.56962 2.60072C3.37477 1.79561 4.41298 1.39305 5.4512 1.39305C6.48942 1.39305 7.52764 1.79561 8.33278 2.60072L10.3668 4.6135L12.4009 2.57953C13.99 0.990498 16.5961 0.990498 18.1641 2.57953C18.9268 3.34227 19.3718 4.35925 19.3718 5.46098C19.3718 6.56271 18.948 7.57969 18.1641 8.34243L10.3668 16.1605L2.56962 8.36362C1.80685 7.57969 1.3619 6.56271 1.3619 5.48217Z" fill="black"/>
</svg>

<svg width="21" height="19" fill="none" xmlns="http://www.w3.org/2000/svg"><path d="M19.16 9.338c2.14-2.14 2.14-5.614 0-7.733a5.486 5.486 0 00-7.755 0l-1.038 1.06-1.038-1.039C7.189-.535 3.714-.535 1.595 1.605a5.43 5.43 0 00-1.59 3.877c0 1.462.573 2.84 1.59 3.877l8.772 8.772 8.793-8.793zM1.362 5.482A3.97 3.97 0 012.57 2.601 4.062 4.062 0 015.45 1.393c1.038 0 2.077.403 2.882 1.208l2.034 2.013L12.4 2.58c1.589-1.59 4.195-1.59 5.763 0a4.056 4.056 0 011.208 2.881 3.97 3.97 0 01-1.208 2.881l-7.797 7.818L2.57 8.364c-.763-.784-1.208-1.801-1.208-2.882z" fill="#000"/></svg>
